img/slider_button_left.svg

<svg width="50" height="49" viewBox="0 0 50 49" fill="none" xmlns="http://www.w3.org/2000/svg">
<path d="M49.0594 24.5C49.0594 38.024 38.0701 49 24.5297 49C10.9893 49 0 38.024 0 24.5C0 10.976 10.9893 3.8147e-05 24.5297 3.8147e-05C38.0701 3.8147e-05 49.0594 10.976 49.0594 24.5ZM15.9443 24.5L26.9827 35.525L30.4414 32.046L22.8862 24.5L30.4414 16.954L26.9827 13.475L15.9443 24.5Z" fill="#FF9999"/>
</svg>

<svg width="50" height="49" fill="none" xmlns="http://www.w3.org/2000/svg"><path d="M49.06 24.5c0 13.524-10.99 24.5-24.53 24.5C10.99 49 0 38.024 0 24.5S10.99 0 24.53 0c13.54 0 24.53 10.976 24.53 24.5zm-33.116 0l11.039 11.025 3.458-3.479-7.555-7.546 7.555-7.546-3.458-3.479L15.944 24.5z" fill="#F99"/></svg>
